X:70G
T:Brandon Waltz with harmony by Anahata
T:Original key: C
C:No 70 Wm Clarke MS Feltwell, Norfolk
N:WC’s address is given “Feltwell, nr Brandon”
N:Fine sign added.
N:Transposed down, originally in C
Z:Anahata <anahata@treewind.co.uk> Transposed from original C
Q:1/4=120
I:abc2nwc
M:3/4
L:1/8
K:Gmaj
V:1 clef=treble
v:2 clef=treble
P:A
V:1
B2B2B2|d4B2|c2c2A2|B2d2g2|
V:2
G2D2G2 | B4G2 | A4F2 | D2G2B2 |
V:1
B2B2c2|d2d2B2|c2A2F2|G2B2d2|
V:2
D2G2A2 | B4G2 | F4D2 | D2G2F2 |
V:1
B2B2c2|d4B2|c2c2A2|B2d2g2|
V:2
G4A2 | B4G2 | F2D2F2 | G4 B2 |
V:1
B2B2c2|d2g2e2|c2A2F2|”^Fine”G4 [P:B]A2|
V:2
G4A2 |B4c2 | A2F2D2 | G4 G2 |
V:1
d4A2|f4d2|e2g2^c2|d2f2a2|
V:2
F4A2 | d4A2 | c2cBAG | F2A2d2 |
V:1
d2d2A2|f2f2d2|e2g2^c2|d4A2|
V:2
F4A2 | d4A2 | cBAGFE | D6 |
V:1
d2A2F2|f2d2A2|g2e2^c2|d2f2a2|
V:2
D2F2A2 | F2A2d2 | e2 c2A2 | F2A2d2 |
V:1
d2A2F2|f2d2a2|g2e2^c2|d2^c2=c2|]
V:2
F4 A2 | d4 A2 | cBAGFE | D2E2F2 |]

